!!!COM: Hindemith, Paul
!!!OTL: Violin Concerto
!!!OMV: III: Lebhaft (Lively)
!!!example: 652
!!!work: Hin-70
**kern	**dynam	**kern	**dynam	**kern	**dynam	**kern	**dynam	**kern	**dynam	**kern	**dynam	**kern	**dynam	**kern	**dynam	**kern	**dynam
*part9	*part9	*part8	*part8	*part7	*part7	*part6	*part6	*part5	*part5	*part4	*part4	*part3	*part3	*part2	*part2	*part1	*part1
*staff9	*	*staff8	*	*staff7	*	*staff6	*	*staff5	*	*staff4	*	*staff3	*	*staff2	*	*staff1	*
*I"Contrabass	*	*I"Violoncello	*	*I"Viola	*	*I"Violin I	*	*I"Violin	*	*I"Bassoon	*	*I"Bass Clarinet in Bb	*	*I"Clarinet in Bb	*	*I"Flute	*
*I'Cb.	*	*I'Vc.	*	*I'Vla.	*	*I'Vln. I	*	*I'Vln.	*	*I'Bsn.	*	*I'B. Cl.	*	*I'Cl.	*	*I'Fl.	*
*clefF4	*	*clefF4	*	*clefC3	*	*clefG2	*	*clefG2	*	*clefF4	*	*clefG2	*	*clefG2	*	*clefG2	*
*k[]	*	*k[]	*	*k[]	*	*k[]	*	*k[]	*	*k[]	*	*k[]	*	*k[]	*	*k[]	*
*	*	*	*	*	*	*	*	*	*	*	*	*	*	*	*	*	*
*M2/4	*	*M2/4	*	*M2/4	*	*M2/4	*	*M2/4	*	*M2/4	*	*M2/4	*	*M2/4	*	*M2/4	*
*MM121	*	*MM121	*	*MM121	*	*MM121	*	*MM121	*	*MM121	*	*MM121	*	*MM121	*	*MM121	*
=459	=459	=459	=459	=459	=459	=459	=459	=459	=459	=459	=459	=459	=459	=459	=459	=459	=459
!LO:TX:t=pizz.	!	!	!	!	!	!	!	!	!	!	!	!	!	!	!	!	!
4EE-X	p	4r	.	8B-X	>	8B-X	>	8ee-XL	.	16EE-XLL 16BB-X	p	16D-XLL	p	16G-XLL 16B-X	p	2r	.
.	.	.	.	.	.	.	.	.	.	16EE-J 16BB-	.	16D-J	.	16G-J 16B-	.	.	.
.	.	.	.	8r	]	8r	]	(8fJ	p	8EE-J 8BB-	.	8D-J	.	8G-J 8B-	.	.	.
8EE-L	.	(4e-X	mf	4r	.	4r	.	8g-XL	.	8EE-L 8BB-	.	8D-L	.	8G-L 8B-	.	.	.
8EE-J	.	.	.	.	.	.	.	8a-XJ	.	8EE-J 8BB-	.	8D-J	.	8G-J 8B-	.	.	.
=460	=460	=460	=460	=460	=460	=460	=460	=460	=460	=460	=460	=460	=460	=460	=460	=460	=460
8r	.	4B-X)	.	2r	.	2r	.	8b-XL	.	8r	.	8r	.	8r	.	2r	.
4EE-X	.	.	.	.	.	.	.	8ccnJ	.	16EE-XLL 16BB-X	.	16D-XLL	.	16G-XLL 16B-X	.	.	.
.	.	.	.	.	.	.	.	.	.	16EE-JJ 16BB-	.	16D-JJ	.	16G-JJ 16B-	.	.	.
.	.	8GnL	.	.	.	.	.	8dd-XL	.	8EE-L 8BB-	.	8D-L	.	8G-L 8B-	.	.	.
8EE-	.	8A-XJ	.	.	.	.	.	8ee-XJ)	.	8EE-J 8BB-	.	8D-J	.	8G-J 8B-	.	.	.
=461	=461	=461	=461	=461	=461	=461	=461	=461	=461	=461	=461	=461	=461	=461	=461	=461	=461
8EE-X	.	(4.d-X	.	2r	.	2r	.	(8ffL	.	8EE-X 8BB-X	.	8D-X	.	8G-X 8B-X	.	2r	.
8r	.	.	.	.	.	.	.	8gg-XJ	.	8r	.	8r	.	8r	.	.	.
4EE-	.	.	.	.	.	.	.	8aa-XL	.	16EE-LL 16BB-	.	16D-LL	.	16G-LL 16B-	.	.	.
.	.	.	.	.	.	.	.	.	.	16EE-J 16BB-	.	16D-J	.	16G-J 16B-	.	.	.
.	.	8F)	.	.	.	.	.	8bb-XJ	.	8EE-J 8BB-	.	8D-J	.	8G-J 8B-	.	.	.
=462	=462	=462	=462	=462	=462	=462	=462	=462	=462	=462	=462	=462	=462	=462	=462	=462	=462
8EE-XL	.	(4.E-X	.	2r	.	2r	.	8cccnL	.	8EE-XL 8Cn	.	8G-XL	.	8B-XL 8c	.	2r	.
8EE-J	.	.	.	.	.	.	.	8ddd-XJ	.	8EE-J 8C	.	8G-J	.	8B-J 8c	.	.	.
8r	.	.	.	.	.	.	.	8eee-XL	.	8r	.	8r	.	8r	.	.	.
[8EE-	.	8D-X)	.	.	.	.	.	8fffJ)	.	16EE-LL 16BB-X	.	16G-LL	.	16B-LL 16d-X	.	.	.
.	.	.	.	.	.	.	.	.	.	16EE-JJ 16BB-	.	16G-JJ	.	16B-JJ 16d-	.	.	.
=463	=463	=463	=463	=463	=463	=463	=463	=463	=463	=463	=463	=463	=463	=463	=463	=463	=463
8EE-L]	.	4BB-X	.	4r	.	2r	.	4ggg-X	.	8EE-XL 8BB-X	.	8G-XL	.	8B-XL 8d-X	.	2r	.
8EE-XJ	.	.	.	.	.	.	.	.	.	8EE-J 8BB-	.	8G-J	.	8B-J 8d-	.	.	.
8EE-	.	8r	.	(4ee-X	mf	.	.	4fff	.	8EE- 8BB-	.	8G-	.	8B- 8d-	.	.	.
8r	.	(8AAn	.	.	.	.	.	.	.	8r	.	8r	.	8r	.	.	.
=464	=464	=464	=464	=464	=464	=464	=464	=464	=464	=464	=464	=464	=464	=464	=464	=464	=464
4DD	<	8DnL)	<	4b-X)	<	2r	.	[2bbb-X	<[	16DDLL 16C	<	16GnLL	<	16B-XLL 16dn	<	2r	.
.	.	.	.	.	.	.	.	.	.	16DDJ 16C	.	16GJ	.	16B-J 16d	.	.	.
.	.	8GJ	.	.	.	.	.	.	.	8DDJ 8C	.	8GJ	.	8B-J 8d	.	.	.
8CCL	.	[4c	[	8gnL	.	.	.	.	.	8CCL 8BBn	.	8FL	.	8A-XL 8e-X	.	.	.
8CCJ	[	.	.	8a-XJ	[	.	.	.	.	8CCJ 8BB	[[	8FJ	[[	8A-J 8e-	[[	.	.
=465	=465	=465	=465	=465	=465	=465	=465	=465	=465	=465	=465	=465	=465	=465	=465	=465	=465
8r	.	8cL]	.	(4.dd-X	.	2r	.	4bbb-]	.	8r	.	8r	.	8r	.	2r	.
4BBB-X	.	(8B-XJ	.	.	.	.	.	.	.	16BBB-XLL 16AA-X	.	16FLL	.	16B-XLL 16f	.	.	.
.	.	.	.	.	.	.	.	.	.	16BBB-JJ 16AA-	.	16FJJ	.	16B-JJ 16f	.	.	.
.	.	8AL	>	.	.	.	.	[4bbb-X	>	8BBB-L 8AA-	>	8FL	>	8B-L 8f	>	.	.
8BBB-	>	8GJ)	.	8f)	>	.	.	.	.	8BBB-J 8C	.	8FJ	.	8B-J 8d-X	.	.	.
=466	=466	=466	=466	=466	=466	=466	=466	=466	=466	=466	=466	=466	=466	=466	=466	=466	=466
!!pagebreak:original
8BBB-X	.	2G-X	]]	(4.e-X	.	2r	.	(8bbb-XL]	.	8BBB-X 8BB-X	.	8F	.	8B-X 8e-X	.	2r	.
8r	.	.	.	.	.	.	.	8aaa-XJ	.	8r	.	8r	.	8r	.	.	.
4EE-X	]]	.	.	.	.	.	.	8ggg-XL	.	16EE-XLL 16BB-	.	16G-XLL	.	16B-LL 16e-	.	.	.
.	.	.	.	.	.	.	.	.	.	16EE-J 16BB-	.	16G-J	.	16B-J 16e-	.	.	.
.	.	.	.	8d-X	]]	.	.	8fffJ	]]	8EE-J 8BB-	]]	8G-J	]]	8B-J 8e-	]]	.	.
=467	=467	=467	=467	=467	=467	=467	=467	=467	=467	=467	=467	=467	=467	=467	=467	=467	=467
8EE-XL	.	[2E-X	p	4.B-X)	p	2r	.	8ggg-X)	.	8EE-XL 8BB-X	.	8G-XL	.	8B-XL 8e-X	.	4r	.
8EE-J	.	.	.	.	.	.	.	8r	.	8EE-J 8BB-	.	8G-J	.	8B-J 8e-	.	.	.
8r	.	.	.	.	.	.	.	(12eee-XL	mf	8r	.	8r	.	8r	.	8r	.
.	.	.	.	.	.	.	.	12ddd	.	.	.	.	.	.	.	.	.
[8EE-	p	.	.	8r	.	.	.	.	.	16EE-LL 16BB-	p	16E-XLL	p	16B-LL 16e-	p	16b-XLL 16ee-X	p
.	.	.	.	.	.	.	.	12eee-J	.	.	.	.	.	.	.	.	.
.	.	.	.	.	.	.	.	.	.	16EE-JJ 16BB-	.	16E-JJ	.	16B-JJ 16e-	.	16b-JJ 16ee-	.
=468	=468	=468	=468	=468	=468	=468	=468	=468	=468	=468	=468	=468	=468	=468	=468	=468	=468
8EE-L]	.	(4E-]	.	2r	.	2r	.	12bb-XL	.	8EE-XL 8BB-X	.	8E-XL	.	8B-XL 8e-X	.	8b-XL 8ee-X	.
.	.	.	.	.	.	.	.	12aa	.	.	.	.	.	.	.	.	.
8EE-XJ	.	.	.	.	.	.	.	.	.	8EE-J 8BB-	.	8E-J	.	8B-J 8e-	.	8b-J 8ee-	.
.	.	.	.	.	.	.	.	12bb-J)	.	.	.	.	.	.	.	.	.
8EE-	.	4F)	.	.	.	.	.	(12ffL	.	8EE- 8BB-	.	8E-	.	8B- 8e-	.	8b- 8ee-	.
.	.	.	.	.	.	.	.	12gg-X	.	.	.	.	.	.	.	.	.
8r	.	.	.	.	.	.	.	.	.	8r	.	8r	.	8r	.	8r	.
.	.	.	.	.	.	.	.	12aa-XJ	.	.	.	.	.	.	.	.	.
=469	=469	=469	=469	=469	=469	=469	=469	=469	=469	=469	=469	=469	=469	=469	=469	=469	=469
4EE-X	.	[2G-X	.	2r	.	2r	.	12ddd-XL	.	16EE-XLL 16BB-X	.	16D-XLL	.	16B-XLL 16d-X	.	16b-XLL 16ee-X	.
.	.	.	.	.	.	.	.	.	.	16EE-J 16BB-	.	16D-J	.	16B-J 16d-	.	16b-J 16ee-	.
.	.	.	.	.	.	.	.	12cccn	.	.	.	.	.	.	.	.	.
.	.	.	.	.	.	.	.	.	.	8EE-J 8BB-	.	8D-J	.	8B-J 8d-	.	8b-J 8ee-	.
.	.	.	.	.	.	.	.	12bb-XJ	.	.	.	.	.	.	.	.	.
8EE-L	.	.	.	.	.	.	.	12aa-XL	.	8EE-L 8BB-	.	8D-L	.	8B-L 8d-	.	8b-L 8ee-	.
.	.	.	.	.	.	.	.	12ggn	.	.	.	.	.	.	.	.	.
8EE-J	.	.	.	.	.	.	.	.	.	8EE-J 8BB-	.	8D-J	.	8B-J 8d-	.	8b-J 8ee-	.
.	.	.	.	.	.	.	.	12gg-XJ)	.	.	.	.	.	.	.	.	.
=470	=470	=470	=470	=470	=470	=470	=470	=470	=470	=470	=470	=470	=470	=470	=470	=470	=470
!!pagebreak:original
8r	.	(4G-]	.	2r	.	2r	.	(12ee-XL	.	8r	.	8r	.	8r	.	8r	.
.	.	.	.	.	.	.	.	12ff	.	.	.	.	.	.	.	.	.
4EE-X	.	.	.	.	.	.	.	.	.	16EE-XLL 16BB-X	.	16E-XLL	.	16B-XLL 16e-X	.	16b-XLL 16ee-X	.
.	.	.	.	.	.	.	.	12ee-J	.	.	.	.	.	.	.	.	.
.	.	.	.	.	.	.	.	.	.	16EE-JJ 16BB-	.	16E-JJ	.	16B-JJ 16e-	.	16b-JJ 16ee-	.
.	.	4A-X)	.	.	.	.	.	12dd-XL	.	8EE-L 8BB-	.	8E-L	.	8B-L 8e-	.	8b-L 8ee-	.
.	.	.	.	.	.	.	.	12ff	.	.	.	.	.	.	.	.	.
8EE-	.	.	.	.	.	.	.	.	.	8EE-J 8BB-	.	8FJ	.	8B-J 8f	.	8b-J 8ee-	.
.	.	.	.	.	.	.	.	12dd-J	.	.	.	.	.	.	.	.	.
=471	=471	=471	=471	=471	=471	=471	=471	=471	=471	=471	=471	=471	=471	=471	=471	=471	=471
8EE-X	.	(4B-X	<	2r	.	2r	.	12b-XL)	.	8EE-X 8BB-X	.	8F	.	8B-X 8f	.	8b-X 8ee-X	.
.	.	.	.	.	.	.	.	(12f	.	.	.	.	.	.	.	.	.
8r	.	.	.	.	.	.	.	.	.	8r	.	8r	.	8r	.	8r	.
.	.	.	.	.	.	.	.	12g-XJ	.	.	.	.	.	.	.	.	.
4EE-	.	4e-X)	.	.	.	.	.	12gnL	<	16EE-LL 16BB-	<	16FLL	<	16B-LL 16f	<	16b-LL 16ee-	<
.	.	.	.	.	.	.	.	.	.	16EE-J 16BB-	.	16FJ	.	16B-J 16f	.	16b-J 16ee-	.
.	.	.	.	.	.	.	.	12a-X	.	.	.	.	.	.	.	.	.
.	.	.	.	.	.	.	.	.	.	8EE-J 8BB-	.	8FJ	.	8B-J 8f	.	8b-J 8ee-	.
.	.	.	.	.	.	.	.	12anJ)	.	.	.	.	.	.	.	.	.
=472	=472	=472	=472	=472	=472	=472	=472	=472	=472	=472	=472	=472	=472	=472	=472	=472	=472
8DDL	.	[2d-X	[[	2r	.	2r	.	(12ddnL	.	8DDL 8AA	.	8DnL	.	8AnL 8g	.	8ccL 8ff	.
.	.	.	.	.	.	.	.	12a	.	.	.	.	.	.	.	.	.
8DDJ	.	.	.	.	.	.	.	.	.	8DDJ 8AA	.	8DJ	.	8AJ 8g	.	8ccJ 8ff	.
.	.	.	.	.	.	.	.	12ddJ	.	.	.	.	.	.	.	.	.
8r	.	.	.	.	.	.	.	12ggL	.	8r	.	8r	.	8r	.	8r	.
.	.	.	.	.	.	.	.	12dd	.	.	.	.	.	.	.	.	.
[8DD	.	.	.	.	.	.	.	.	.	16DDLL 16BBn	.	16DLL	.	16BnLL 16f	.	16bnLL 16ff	.
.	.	.	.	.	.	.	.	12ggJ	[[	.	.	.	.	.	.	.	.
.	.	.	.	.	.	.	.	.	.	16DDJJ 16BB	[	16DJJ	[	16BJJ 16f	[	16bJJ 16ff	[
=473	=473	=473	=473	=473	=473	=473	=473	=473	=473	=473	=473	=473	=473	=473	=473	=473	=473
8DDL]	.	2d-]	.	2r	.	2r	.	12cccL	.	8DDL 8BB-X	.	8DL	.	8B-XL 8f	.	8b-XL 8ff	.
.	.	.	.	.	.	.	.	12gg	.	.	.	.	.	.	.	.	.
8DDJ	.	.	.	.	.	.	.	.	.	8DDJ 8AA	.	8DJ	.	8AJ 8f	.	8aJ 8ff	.
.	.	.	.	.	.	.	.	12cccJ)	.	.	.	.	.	.	.	.	.
8DD	.	.	.	.	.	.	.	(12fffL	.	8DD 8AA-X	.	8D	.	8A-X 8f	.	8a-X 8ff	.
.	.	.	.	.	.	.	.	12eee	.	.	.	.	.	.	.	.	.
8r	.	.	.	.	.	.	.	.	.	8r	.	8r	.	8r	.	8r	.
.	.	.	.	.	.	.	.	12eee-XJ)	.	.	.	.	.	.	.	.	.
=	=	=	=	=	=	=	=	=	=	=	=	=	=	=	=	=	=
*-	*-	*-	*-	*-	*-	*-	*-	*-	*-	*-	*-	*-	*-	*-	*-	*-	*-
!!!system-decoration: [(s1,s2,s3,s4)][(s5,s6,s7,s8,s9)]
!!!CDT: 1895/11/16-1963/12/28
!!!CBL: Hanau, Germany
!!!CDL: Frankfurt, Germany
!!!CNT: German
!!!AGN: Orchestral; Concerto
!!!MCN: Mengelberg, Willem
!!!MDT: 1940/03/14
!!!MGN: Concertgebouw Orchestra
!!!MLC: Amsterdam, The Netherlands
!!!MPD: 1940
!!!MPN: Helmann, Ferdinand
!!!ODT: 1939
!!!PDT: 1939
!!!excerpt-start-measure: 459
!!!excerpt-end-measure: 473
!!!excerpt-start-time: 8:15
!!!excerpt-end-time: 8:27
!!!EEV: 2020/01/22
!!!ONB: Converted from MusicXML on 2020/01/22
